; generated by PrusaSlicer 2.5.0+win64 on 2023-02-12 at 18:33:23 UTC


;
;
; 

; external perimeters extrusion width = 0.45mm
; perimeters extrusion width = 0.45mm
; infill extrusion width = 0.45mm
; solid infill extrusion width = 0.45mm
; top infill extrusion width = 0.40mm
; support material extrusion width = 0.35mm
; first layer extrusion width = 0.42mm

M73 P0 R58
M73 C22
M73 Q0 S58
M73 D23
M201 X1000 Y1000 Z200 E5000 ; sets maximum accelerations, mm/sec^2
M203 X200 Y200 Z12 E120 ; sets maximum feedrates, mm / sec
M204 P1250 R1250 T1250 ; sets acceleration (P, T) and retract acceleration (R), mm/sec^2
M205 X8.00 Y8.00 Z0.40 E4.50 ; sets the jerk limits, mm/sec
M205 S0 T0 ; sets the minimum extruding and travel feed rate, mm/sec
M107
;TYPE:Custom
M862.3 P "MK3" ; printer model check
M862.1 P0.4 ; nozzle diameter check
M115 U3.12.1 ; tell printer latest fw version
G90 ; use absolute coordinates
M83 ; extruder relative mode
M104 S215 ; set extruder temp
M140 S60 ; set bed temp
M190 S60 ; wait for bed temp
M109 S215 ; wait for extruder temp
G28 W ; home all without mesh bed level
G80 ; mesh bed leveling

G1 Z0.2 F720
G1 Y-3 F1000 ; go outside print area
G92 E0
G1 X60 E9 F1000 ; intro line
G1 X100 E12.5 F1000 ; intro line

G92 E0
M221 S95

; Don't change E values below. Excessive value can damage the printer.

M907 E538 ; set extruder motor current
G21 ; set units to millimeters
G90 ; use absolute coordinates
M83 ; use relative distances for extrusion
M900 K0.05 ; Filament gcode LA 1.5
M900 K30 ; Filament gcode LA 1.0
M107
;LAYER_CHANGE
;Z:0.2
;HEIGHT:0.2
;BEFORE_LAYER_CHANGE
G92 E0.0
;0.2


G1 E-.8 F2100
G1 Z.4 F720
;AFTER_LAYER_CHANGE
;0.2
G1 X96.03 Y94.032 F10800
G1 Z.2 F720
G1 E.8 F2100
M204 S800
;TYPE:Skirt/Brim
;WIDTH:0.42
G1 F1200
G1 X97.247 Y92.836 E.0535
G1 X98.578 Y91.713 E.05459
G1 X100.015 Y90.669 E.05572
G1 X101.552 Y89.706 E.05685
G1 X103.178 Y88.828 E.05795
G1 X104.887 Y88.038 E.05902
G1 X106.668 Y87.337 E.06001
G1 X108.513 Y86.73 E.06092
G1 X110.414 Y86.217 E.06172
G1 X112.36 Y85.801 E.0624
G1 X114.342 Y85.483 E.06295
G1 X116.351 Y85.264 E.06335
G1 X118.376 Y85.146 E.0636
G1 X120.408 Y85.128 E.0637
G1 X123.128 Y85.263 E.0854
G1 X158.131 Y88.152 E1.10122
G1 X159.616 Y88.84 E.05133
M73 D22
G1 X161.923 Y91.147 E.1023
G1 X162.62 Y92.828 E.05704
G1 X162.62 Y117.172 E.76327
G1 X161.923 Y118.853 E.05704
G1 X159.616 Y121.16 E.1023
G1 X158.131 Y121.848 E.05133
G1 X123.11 Y124.739 E1.10181
M73 P0 R57
G1 X119.092 Y124.872 E.12603
G1 X116.351 Y124.736 E.08606
G1 X113.057 Y124.323 E.10408
G1 X110.414 Y123.783 E.08459
G1 X107.318 Y122.89 E.10103
G1 X104.887 Y121.962 E.0816
G1 X102.128 Y120.62 E.09617
G1 X100.06 Y119.361 E.07592
G1 X98.167 Y117.958 E.07389
G1 X96.873 Y116.816 E.05411
G1 X95.702 Y115.609 E.05272
G1 X94.644 Y114.319 E.05232
G1 X93.729 Y112.982 E.0508
G1 X92.946 Y111.571 E.05059
G1 X92.478 Y110.534 E.03566
G1 X91.959 Y109.048 E.04937
G1 X91.615 Y107.612 E.04628
G1 X91.414 Y106.075 E.04862
G1 X91.373 Y104.957 E.03508
G1 X91.462 Y103.421 E.04822
G1 X91.7 Y101.971 E.0461
G1 X91.982 Y100.873 E.03554
G1 X92.509 Y99.392 E.04928
G1 X93.189 Y97.955 E.04984
G1 X94.01 Y96.58 E.05021
G1 X94.937 Y95.299 E.04959
G1 X95.991 Y94.078 E.05058
M204 S1000
; printing object hsw_worklight_magnet_holder id:0 copy 0
;WIPE_START
G1 F8640
G1 X97.247 Y92.836 E-.40779
G1 X98.413 Y91.852 E-.35221
;WIPE_END
G1 E-.04 F2100
G1 Z.6 F720
G1 X157.935 Y92.828 F10800
G1 Z.2 F720
G1 E.8 F2100
M204 S800
;TYPE:Support material
G1 F1200
G1 X160.243 Y92.828 E.07234
G1 X160.243 Y117.172 E.76327
G1 X157.935 Y117.172 E.07234
G1 X157.935 Y119.479 E.07234
G1 X148.105 Y119.479 E.30823
G1 X148.105 Y118.97 E.01595
G1 X148.949 Y118.97 E.02646
G1 X149.23 Y118.689 E.01247
G1 X149.23 Y91.311 E.85841
G1 X148.949 Y91.03 E.01247
G1 X148.105 Y91.03 E.02646
G1 X148.105 Y90.521 E.01595
G1 X157.935 Y90.521 E.30823
G1 X157.935 Y92.772 E.07056
M204 S1000
G1 X159.775 Y117.002 F10800
M204 S800
G1 F1200
G1 X159.775 Y93.168 E.74731
G1 X159.356 Y93.168 E.01314
G1 X159.356 Y116.832 E.74199
G1 X158.937 Y116.832 E.01314
G1 X158.937 Y93.168 E.74199
G1 X158.518 Y93.168 E.01314
G1 X158.518 Y116.832 E.74199
G1 X158.099 Y116.832 E.01314
G1 X158.099 Y93.168 E.74199
G1 X157.68 Y93.168 E.01314
M73 Q0 S57
G1 X157.68 Y116.832 E.74199
G1 X157.596 Y116.832 E.00264
G1 X157.596 Y119.139 E.07234
G1 X157.261 Y119.139 E.0105
G1 X157.261 Y90.861 E.88667
G1 X156.842 Y90.861 E.01314
G1 X156.842 Y119.139 E.88667
G1 X156.423 Y119.139 E.01314
G1 X156.423 Y90.861 E.88667
G1 X156.004 Y90.861 E.01314
G1 X156.004 Y119.139 E.88667
G1 X155.585 Y119.139 E.01314
M73 P1 R57
M73 Q1 S57
G1 X155.585 Y90.861 E.88667
G1 X155.166 Y90.861 E.01314
G1 X155.166 Y119.139 E.88667
G1 X154.747 Y119.139 E.01314
G1 X154.747 Y90.861 E.88667
G1 X154.328 Y90.861 E.01314
G1 X154.328 Y119.139 E.88667
G1 X153.909 Y119.139 E.01314
G1 X153.909 Y90.861 E.88667
G1 X153.49 Y90.861 E.01314
G1 X153.49 Y119.139 E.88667
G1 X153.071 Y119.139 E.01314
G1 X153.071 Y90.861 E.88667
G1 X152.652 Y90.861 E.01314
G1 X152.652 Y119.139 E.88667
G1 X152.234 Y119.139 E.01314
G1 X152.234 Y90.861 E.88667
G1 X151.815 Y90.861 E.01314
G1 X151.815 Y119.139 E.88667
G1 X151.396 Y119.139 E.01314
G1 X151.396 Y90.861 E.88667
G1 X150.977 Y90.861 E.01314
G1 X150.977 Y119.139 E.88667
G1 X150.558 Y119.139 E.01314
G1 X150.558 Y90.861 E.88667
G1 X150.139 Y90.861 E.01314
G1 X150.139 Y119.139 E.88667
G1 X149.72 Y119.139 E.01314
G1 X149.72 Y90.861 E.88667
G1 X149.301 Y90.861 E.01314
G1 X149.301 Y90.902 E.0013
G1 X149.569 Y91.171 E.01191
G1 X149.569 Y118.829 E.86722
G1 X149.301 Y119.098 E.01191
M73 C21
G1 X149.301 Y119.309 E.00662
M204 S1000
;WIPE_START
G1 F8640
G1 X149.301 Y119.098 E-.04874
G1 X149.569 Y118.829 E-.08774
G1 X149.569 Y116.129 E-.62352
;WIPE_END
G1 E-.04 F2100
G1 Z.6 F720
G1 X136.066 Y117.749 F10800
G1 Z.2 F720
G1 E.8 F2100
M204 S800
;TYPE:Perimeter
;WIDTH:0.419999
G1 F1200
G1 X135.988 Y117.769 E.00251
G1 X134.886 Y118.352 E.03911
G1 X133.872 Y118.833 E.03518
G1 X132.822 Y119.28 E.03578
G1 X131.74 Y119.693 E.03632
G1 X130.628 Y120.07 E.03682
G1 X129.488 Y120.41 E.03728
G1 X128.325 Y120.712 E.03769
G1 X127.142 Y120.975 E.03798
G1 X125.326 Y121.297 E.05783
G1 X124.104 Y121.461 E.03868
G1 X122.867 Y121.584 E.03895
G1 X121.624 Y121.666 E.03909
G1 X120.375 Y121.708 E.03917
G1 X119.125 Y121.708 E.03919
G1 X117.876 Y121.666 E.03917
G1 X116.632 Y121.584 E.03909
G1 X115.396 Y121.461 E.03895
G1 X114.171 Y121.296 E.03876
G1 X112.962 Y121.093 E.03844
G1 X111.173 Y120.711 E.05737
G1 X110.012 Y120.41 E.03761
G1 X108.872 Y120.07 E.03727
G1 X107.763 Y119.694 E.03673
G1 X106.146 Y119.06 E.05445
G1 X105.116 Y118.596 E.0354
G1 X104.115 Y118.096 E.0351
G1 X102.697 Y117.293 E.0511
G1 X101.805 Y116.721 E.03322
G1 X100.955 Y116.12 E.03264
G1 X100.145 Y115.488 E.03221
G1 X99.039 Y114.51 E.04628
G1 X98.357 Y113.823 E.03036
G1 X97.733 Y113.122 E.02944
G1 X96.891 Y112.029 E.04324
G1 X96.176 Y110.907 E.04174
G1 X95.586 Y109.752 E.04064
G1 X95.269 Y108.982 E.02612
G1 X94.896 Y107.795 E.03901
G1 X94.654 Y106.596 E.03835
G1 X94.567 Y105.801 E.02508
G1 X94.537 Y105 E.02513
G1 X94.567 Y104.199 E.02515
G1 X94.654 Y103.403 E.02508
G1 X94.896 Y102.204 E.03835
G1 X95.269 Y101.018 E.039
G1 X95.586 Y100.248 E.02612
G1 X96.176 Y99.093 E.04065
G1 X96.891 Y97.97 E.04174
G1 X97.733 Y96.878 E.04323
G1 X98.201 Y96.353 E.02206
G1 X98.688 Y95.835 E.02229
G1 X99.764 Y94.832 E.04614
G1 X100.55 Y94.188 E.03184
G1 X101.802 Y93.281 E.0485
G1 X103.163 Y92.43 E.05032
G1 X104.614 Y91.648 E.05166
G1 X106.152 Y90.938 E.05311
G1 X107.213 Y90.51 E.03588
G1 X108.873 Y89.93 E.05513
G1 X110.591 Y89.435 E.05607
G1 X112.363 Y89.024 E.05703
G1 X113.561 Y88.801 E.03822
G1 X115.399 Y88.539 E.05821
G1 X116.63 Y88.416 E.0388
G1 X118.503 Y88.308 E.05881
G1 X119.761 Y88.287 E.03946
G1 X121 Y88.308 E.03884
G1 X122.244 Y88.37 E.03906
G1 X124.104 Y88.54 E.05855
G1 X125.939 Y88.801 E.05813
G1 X127.14 Y89.025 E.0383
G1 X128.322 Y89.288 E.03798
G1 X130.064 Y89.756 E.05655
G1 X131.187 Y90.114 E.03697
G1 X132.285 Y90.509 E.03657
G1 X133.351 Y90.939 E.03606
G1 X134.384 Y91.404 E.0355
G1 X135.382 Y91.902 E.03497
G1 X135.982 Y92.228 E.02144
G1 X136.253 Y92.297 E.00874
G1 X147.963 Y92.297 E.36717
G1 X147.963 Y117.703 E.79658
G1 X136.253 Y117.703 E.36716
G1 X136.124 Y117.735 E.00416
M204 S1000
G1 X136.136 Y118.117 F10800
M204 S800
;TYPE:External perimeter
G1 F1200
G1 X135.055 Y118.689 E.03835
G1 X134.027 Y119.177 E.03567
G1 X132.963 Y119.63 E.03624
G1 X131.868 Y120.048 E.03677
G1 X130.742 Y120.429 E.03726
G1 X129.59 Y120.773 E.0377
G1 X128.413 Y121.078 E.03811
G1 X127.216 Y121.345 E.03844
G1 X125.384 Y121.669 E.05833
G1 X124.147 Y121.835 E.03913
G1 X122.899 Y121.96 E.03935
G1 X121.642 Y122.043 E.03948
G1 X120.381 Y122.085 E.03956
G1 X119.119 Y122.085 E.03958
G1 X117.858 Y122.043 E.03956
G1 X116.601 Y121.96 E.03948
G1 X115.353 Y121.835 E.03935
G1 X114.115 Y121.669 E.03916
G1 X112.892 Y121.463 E.03889
G1 X111.086 Y121.078 E.05788
G1 X109.91 Y120.773 E.03808
G1 X108.758 Y120.429 E.0377
G1 X107.633 Y120.048 E.03723
G1 X106 Y119.407 E.05502
G1 X104.955 Y118.937 E.03593
G1 X103.938 Y118.429 E.03565
G1 X102.502 Y117.616 E.05173
G1 X101.594 Y117.034 E.03381
G1 X100.73 Y116.423 E.03319
G1 X99.906 Y115.78 E.03278
G1 X98.777 Y114.781 E.04725
G1 X98.083 Y114.082 E.03091
G1 X97.442 Y113.363 E.03018
G1 X96.582 Y112.246 E.04419
G1 X95.848 Y111.094 E.04283
M73 D21
G1 X95.243 Y109.91 E.04169
G1 X94.914 Y109.11 E.02711
G1 X94.53 Y107.889 E.04014
G1 X94.281 Y106.654 E.0395
G1 X94.19 Y105.829 E.02604
G1 X94.16 Y105 E.02599
G1 X94.19 Y104.171 E.02601
G1 X94.281 Y103.346 E.02604
G1 X94.53 Y102.11 E.03951
G1 X94.914 Y100.889 E.04013
G1 X95.243 Y100.09 E.02711
G1 X95.848 Y98.906 E.0417
G1 X96.582 Y97.753 E.04283
M73 Q2 S57
G1 X97.442 Y96.637 E.04418
G1 X97.919 Y96.102 E.02248
G1 X98.422 Y95.567 E.02301
G1 X99.143 Y94.878 E.03129
G1 X99.52 Y94.545 E.01577
G1 X100.316 Y93.892 E.03228
M73 P2 R57
G1 X101.593 Y92.966 E.04946
G1 X102.973 Y92.104 E.05104
G1 X104.445 Y91.311 E.05241
G1 X106.002 Y90.592 E.05376
G1 X107.08 Y90.157 E.03645
G1 X108.758 Y89.571 E.05573
G1 X110.496 Y89.07 E.05671
G1 X112.286 Y88.655 E.0576
G1 X113.5 Y88.429 E.03873
G1 X115.354 Y88.165 E.05871
G1 X116.6 Y88.04 E.03929
G1 X118.489 Y87.931 E.0593
G1 X119.761 Y87.91 E.0399
G1 X121.012 Y87.931 E.03923
G1 X122.27 Y87.993 E.0395
G1 X124.147 Y88.165 E.05909
G1 X126 Y88.429 E.05868
G1 X127.215 Y88.655 E.03876
G1 X128.412 Y88.921 E.03844
G1 X130.17 Y89.395 E.05707
G1 X131.308 Y89.757 E.03746
G1 X132.419 Y90.157 E.03702
G1 X133.499 Y90.592 E.03651
G1 X134.545 Y91.063 E.03597
G1 X136.253 Y91.92 E.0599
G1 X148.34 Y91.92 E.37899
G1 X148.34 Y118.08 E.82023
M73 P2 R56
G1 X136.253 Y118.08 E.37899
G1 X136.191 Y118.095 E.002
M204 S1000
G1 X135.835 Y117.853 F10800
;WIPE_START
G1 F8640
G1 X135.055 Y118.689 E-.29606
G1 X134.027 Y119.177 E-.2627
G1 X133.225 Y119.518 E-.20124
;WIPE_END
G1 E-.04 F2100
G1 Z.6 F720
G1 X147.85 Y93.177 F10800
G1 Z.2 F720
G1 E.8 F2100
M204 S800
;TYPE:Solid infill
;WIDTH:0.422265
G1 F1200
G1 X147.252 Y92.58 E.02666
G1 X146.715 Y92.579 E.01693
G1 X147.68 Y93.544 E.04304
G1 X147.68 Y94.081 E.01692
G1 X146.178 Y92.579 E.06698
G1 X145.642 Y92.579 E.01693
G1 X147.68 Y94.617 E.09093
G1 X147.68 Y95.154 E.01692
G1 X145.105 Y92.578 E.11487
G1 X144.568 Y92.578 E.01693
G1 X147.68 Y95.69 E.13882
G1 X147.68 Y96.226 E.01692
G1 X144.031 Y92.578 E.16276
G1 X143.495 Y92.577 E.01693
G1 X147.68 Y96.763 E.18671
G1 X147.68 Y97.299 E.01692
G1 X142.958 Y92.577 E.21065
G1 X142.421 Y92.577 E.01693
G1 X147.68 Y97.836 E.2346
G1 X147.68 Y98.372 E.01692
G1 X141.884 Y92.576 E.25854
G1 X141.347 Y92.576 E.01693
G1 X147.68 Y98.909 E.28249
G1 X147.68 Y99.445 E.01692
G1 X140.811 Y92.576 E.30643
G1 X140.274 Y92.576 E.01693
G1 X147.68 Y99.982 E.33038
G1 X147.68 Y100.518 E.01692
G1 X139.737 Y92.575 E.35432
G1 X139.2 Y92.575 E.01693
G1 X147.68 Y101.055 E.37827
G1 X147.68 Y101.591 E.01692
G1 X138.664 Y92.575 E.40221
G1 X138.127 Y92.574 E.01693
G1 X147.68 Y102.128 E.42616
G1 X147.68 Y102.664 E.01692
G1 X137.59 Y92.574 E.4501
G1 X137.053 Y92.574 E.01693
G1 X147.68 Y103.201 E.47405
G1 X147.68 Y103.737 E.01692
G1 X136.516 Y92.573 E.49799
G1 X136.139 Y92.573 E.01192
G1 X135.913 Y92.506 E.00742
G1 X147.68 Y104.274 E.52491
G1 X147.68 Y104.81 E.01692
G1 X134.795 Y91.925 E.57478
G1 X133.772 Y91.439 E.03572
G1 X147.68 Y105.347 E.62041
G1 X147.68 Y105.883 E.01692
G1 X132.832 Y91.035 E.66236
G1 X131.95 Y90.689 E.02988
M73 Q2 S56
G1 X147.68 Y106.42 E.70171
G1 X147.68 Y106.956 E.01692
G1 X131.112 Y90.387 E.73909
G1 X130.324 Y90.136 E.02609
G1 X147.68 Y107.492 E.77424
G1 X147.68 Y108.029 E.01692
G1 X129.567 Y89.916 E.808
G1 X128.833 Y89.718 E.02398
G1 X147.68 Y108.565 E.84075
G1 X147.68 Y109.102 E.01692
G1 X128.108 Y89.53 E.87307
G1 X127.418 Y89.376 E.02229
G1 X147.68 Y109.638 E.90385
G1 X147.68 Y110.175 E.01692
G1 X126.744 Y89.239 E.93392
G1 X126.085 Y89.116 E.02115
G1 X147.68 Y110.711 E.96333
G1 X147.68 Y111.248 E.01692
G1 X125.449 Y89.017 E.99167
G1 X124.824 Y88.928 E.01993
G1 X147.68 Y111.784 E1.01958
G1 X147.68 Y112.321 E.01692
G1 X124.198 Y88.839 E1.04749
G1 X123.6 Y88.778 E.01895
M73 P3 R56
M73 Q3 S56
G1 X147.68 Y112.857 E1.07415
G1 X147.68 Y113.394 E.01692
G1 X123.01 Y88.724 E1.10048
G1 X122.42 Y88.67 E.0187
G1 X147.68 Y113.93 E1.12682
G1 X147.68 Y114.467 E.01692
G1 X121.847 Y88.633 E1.15239
G1 X121.282 Y88.605 E.01783
G1 X147.68 Y115.003 E1.17757
G1 X147.68 Y115.54 E.01692
G1 X120.727 Y88.586 E1.20234
G1 X120.181 Y88.577 E.01721
G1 X147.68 Y116.076 E1.22668
G1 X147.68 Y116.613 E.01692
M73 C20
G1 X119.646 Y88.579 E1.25054
G1 X119.115 Y88.584 E.01675
G1 X147.68 Y117.149 E1.27422
G1 X147.68 Y117.42 E.00855
G1 X147.415 Y117.42 E.00836
G1 X118.584 Y88.59 E1.28608
G1 X118.074 Y88.616 E.01612
G1 X146.879 Y117.421 E1.28492
G1 X146.343 Y117.421 E.01691
G1 X117.567 Y88.645 E1.28363
G1 X117.06 Y88.675 E.01602
M73 D20
G1 X145.806 Y117.421 E1.28233
G1 X145.27 Y117.422 E.01691
G1 X116.557 Y88.708 E1.28086
G1 X116.069 Y88.757 E.01546
M73 P3 R55
G1 X144.734 Y117.422 E1.2787
G1 X144.198 Y117.422 E.01691
G1 X115.581 Y88.805 E1.27655
G1 X115.106 Y88.867 E.01511
G1 X143.662 Y117.422 E1.27382
G1 X143.126 Y117.423 E.01691
G1 X114.636 Y88.934 E1.27085
G1 X114.167 Y89 E.01496
M73 P4 R55
M73 Q4 S56
G1 X142.589 Y117.423 E1.26788
G1 X142.053 Y117.423 E.01691
G1 X113.697 Y89.067 E1.26491
G1 X113.242 Y89.148 E.01459
G1 X141.517 Y117.424 E1.26131
G1 X140.981 Y117.424 E.01691
M73 Q4 S55
G1 X112.789 Y89.232 E1.25757
G1 X112.34 Y89.32 E.01443
G1 X140.445 Y117.424 E1.25369
G1 X139.909 Y117.425 E.01691
G1 X111.905 Y89.421 E1.2492
G1 X111.469 Y89.522 E.0141
G1 X139.372 Y117.425 E1.24472
G1 X138.836 Y117.425 E.01691
G1 X111.033 Y89.622 E1.24023
G1 X110.601 Y89.726 E.01404
G1 X138.3 Y117.426 E1.23562
G1 X137.764 Y117.426 E.01691
G1 X110.184 Y89.846 E1.23028
G1 X109.768 Y89.966 E.01367
G1 X137.228 Y117.426 E1.22493
G1 X136.692 Y117.427 E.01691
G1 X109.352 Y90.086 E1.21959
G1 X108.936 Y90.208 E.01365
G1 X136.156 Y117.427 E1.2142
G1 X135.895 Y117.499 E.00854
G1 X135.762 Y117.569 E.00475
G1 X108.539 Y90.346 E1.21436
G1 X108.141 Y90.485 E.01328
G1 X135.411 Y117.755 E1.21644
G1 X135.06 Y117.94 E.01252
G1 X107.743 Y90.624 E1.21852
G1 X107.346 Y90.763 E.01328
G1 X134.707 Y118.124 E1.22052
G1 X134.343 Y118.297 E.0127
M73 P5 R55
M73 Q5 S55
G1 X106.962 Y90.916 E1.2214
G1 X106.58 Y91.07 E.013
G1 X133.979 Y118.469 E1.22221
G1 X133.61 Y118.637 E.01278
M73 C19
G1 X106.2 Y91.227 E1.2227
G1 X105.833 Y91.397 E.01275
G1 X133.234 Y118.797 E1.22229
G1 X132.858 Y118.958 E.0129
G1 X105.466 Y91.566 E1.22189
G1 X105.099 Y91.735 E.01275
G1 X132.474 Y119.11 E1.22114
G1 X132.086 Y119.258 E.01311
G1 X104.733 Y91.905 E1.22017
G1 X104.384 Y92.093 E.01249
M73 D19
G1 X131.697 Y119.406 E1.21839
G1 X131.298 Y119.544 E.01331
G1 X104.035 Y92.281 E1.21615
G1 X103.687 Y92.469 E.01249
M73 P5 R54
G1 X130.898 Y119.68 E1.21382
G1 X130.496 Y119.814 E.01337
G1 X103.338 Y92.657 E1.21144
G1 X103.006 Y92.861 E.0123
G1 X130.082 Y119.937 E1.20781
G1 X129.669 Y120.061 E.0136
G1 X102.676 Y93.068 E1.2041
G1 X102.346 Y93.274 E.01228
G1 X129.251 Y120.179 E1.20018
G1 X128.825 Y120.29 E.01388
